images/icon-location.svg

<svg width="30" height="30" viewBox="0 0 30 30" fill="none" xmlns="http://www.w3.org/2000/svg">
<path d="M23.973 3.71637C21.5765 1.31982 18.3902 0 15.001 0C11.6118 0 8.42535 1.31982 6.02887 3.71637C3.63232 6.11297 2.3125 9.2993 2.3125 12.6884C2.3125 19.5446 8.7952 25.2472 12.2779 28.3109C12.7619 28.7366 13.1799 29.1043 13.5129 29.4153C13.9301 29.805 14.4655 29.9999 15.0009 29.9999C15.5364 29.9999 16.0718 29.805 16.489 29.4153C16.822 29.1042 17.24 28.7366 17.7239 28.3109C21.2067 25.2472 27.6894 19.5446 27.6894 12.6884C27.6893 9.2993 26.3696 6.11297 23.973 3.71637ZM16.5632 26.9914C16.0686 27.4265 15.6415 27.8023 15.2894 28.1312C15.1276 28.2821 14.8742 28.2822 14.7124 28.1312C14.3603 27.8021 13.9332 27.4264 13.4386 26.9914C10.1644 24.1112 4.06973 18.7499 4.06973 12.6885C4.06973 6.66106 8.97338 1.7574 15.0009 1.7574C21.0283 1.7574 25.9319 6.66106 25.9319 12.6885C25.932 18.7499 19.8374 24.1112 16.5632 26.9914Z" fill="#1E84B5"/>
<path d="M14.9979 6.61719C11.9146 6.61719 9.40625 9.12553 9.40625 12.2088C9.40625 15.292 11.9146 17.8004 14.9979 17.8004C18.0812 17.8004 20.5895 15.292 20.5895 12.2088C20.5895 9.12553 18.0812 6.61719 14.9979 6.61719ZM14.9979 16.043C12.8837 16.043 11.1636 14.3229 11.1636 12.2087C11.1636 10.0946 12.8837 8.37447 14.9979 8.37447C17.1121 8.37447 18.8322 10.0946 18.8322 12.2087C18.8322 14.3229 17.1121 16.043 14.9979 16.043Z" fill="#0E384C"/>
</svg>

<svg xmlns="http://www.w3.org/2000/svg" width="30" height="30" fill="none" viewBox="0 0 30 30"><path fill="#1e84b5" d="M23.973 3.716A12.6 12.6 0 0 0 15.001 0c-3.39 0-6.576 1.32-8.972 3.716a12.6 12.6 0 0 0-3.716 8.972c0 6.857 6.482 12.56 9.965 15.623.484.426.902.793 1.235 1.104.417.39.953.585 1.488.585s1.07-.195 1.488-.585c.333-.31.751-.678 1.235-1.104 3.483-3.064 9.965-8.766 9.965-15.623 0-3.389-1.32-6.575-3.716-8.972m-7.41 23.275c-.494.436-.921.811-1.274 1.14a.424.424 0 0 1-.577 0c-.352-.329-.779-.705-1.273-1.14-3.275-2.88-9.37-8.241-9.37-14.302 0-6.028 4.904-10.932 10.932-10.932 6.027 0 10.93 4.904 10.93 10.932.001 6.06-6.094 11.422-9.368 14.302"/><path fill="#0e384c" d="M14.998 6.617a5.6 5.6 0 0 0-5.592 5.592 5.6 5.6 0 0 0 5.592 5.591 5.6 5.6 0 0 0 5.592-5.591 5.6 5.6 0 0 0-5.592-5.592m0 9.426a3.84 3.84 0 0 1-3.834-3.834 3.84 3.84 0 0 1 3.834-3.835 3.84 3.84 0 0 1 3.834 3.835 3.84 3.84 0 0 1-3.834 3.834"/></svg>
